X: 103
T:Rakes of London. JC.103
T:Rakes of Mallow,aka. JC.103
M:C|
L:1/8
Q:160
C:Rakes of Mallow,aka
S:John Clare,Poet,Helpston. (1793-1864)
R:Country-dance
O:England
A:Northamptonshire
N:
Z:vmp.P. Headford
K:G
GBGB (G2BG)|FAFA A2AF|GBGB GBdB|cAGFG2B,2:|!
|:gedc Bcd2|gedc BdA2|gedc BGc2|BGAFG2B,2:|]
W:Song text exists. See Deacon. |
